src/assets/icons/months,fancy,september-9.svg

<svg width="48" height="48" viewBox="0 0 48 48" fill="none" xmlns="http://www.w3.org/2000/svg">
<rect opacity="0.2" x="4" y="6" width="40" height="40" rx="4" fill="black"/>
<path d="M16.0036 27.7102H18.3615C18.3274 25.6364 16.6229 24.2045 14.032 24.2045C11.4808 24.2045 9.61151 25.6136 9.62287 27.7273C9.61719 29.4432 10.8274 30.4261 12.7933 30.8977L14.0604 31.2159C15.3274 31.5227 16.032 31.8864 16.0376 32.6705C16.032 33.5227 15.2251 34.1023 13.9751 34.1023C12.6967 34.1023 11.7763 33.5114 11.6967 32.3466H9.31605C9.37855 34.8636 11.1797 36.1648 14.0036 36.1648C16.8445 36.1648 18.5149 34.8068 18.5206 32.6761C18.5149 30.7386 17.0547 29.7102 15.032 29.2557L13.9865 29.0057C12.9751 28.7727 12.1286 28.3977 12.1456 27.5625C12.1456 26.8125 12.8104 26.2614 14.0149 26.2614C15.1911 26.2614 15.9126 26.7955 16.0036 27.7102ZM20.1754 36H28.0391V33.9716H22.6357V31.1932H27.6129V29.1648H22.6357V26.392H28.0163V24.3636H20.1754V36ZM29.9723 36H32.4325V32.2273H34.5007C37.1768 32.2273 38.7337 30.6307 38.7337 28.3068C38.7337 25.9943 37.2053 24.3636 34.5632 24.3636H29.9723V36ZM32.4325 30.2557V26.375H34.0916C35.5121 26.375 36.1996 27.1477 36.1996 28.3068C36.1996 29.4602 35.5121 30.2557 34.103 30.2557H32.4325Z" fill="black"/>
<g opacity="0.4">
<path d="M10 4C10 2.89543 10.8954 2 12 2C13.1046 2 14 2.89543 14 4V8C14 9.10457 13.1046 10 12 10C10.8954 10 10 9.10457 10 8V4Z" fill="black"/>
<path d="M34 4C34 2.89543 34.8954 2 36 2C37.1046 2 38 2.89543 38 4V8C38 9.10457 37.1046 10 36 10C34.8954 10 34 9.10457 34 8V4Z" fill="black"/>
</g>
<path fill-rule="evenodd" clip-rule="evenodd" d="M10 6.00869C7.52043 6.04456 6.11466 6.22849 5.17157 7.17157C4 8.34315 4 10.2288 4 14V16H44V14C44 10.2288 44 8.34315 42.8284 7.17157C41.8853 6.22849 40.4796 6.04456 38 6.00869V8C38 9.10457 37.1046 10 36 10C34.8954 10 34 9.10457 34 8V6H14V8C14 9.10457 13.1046 10 12 10C10.8954 10 10 9.10457 10 8V6.00869Z" fill="black"/>
</svg>

<svg xmlns="http://www.w3.org/2000/svg" width="48" height="48" fill="none" viewBox="0 0 48 48">
  <rect width="40" height="40" x="4" y="6" fill="#000" opacity=".2" rx="4"/>
  <path fill="#000" d="M16.004 27.71h2.357c-.034-2.074-1.738-3.506-4.329-3.506-2.551 0-4.42 1.41-4.41 3.523-.005 1.716 1.205 2.7 3.171 3.17l1.267.319c1.267.307 1.972.67 1.978 1.454-.006.853-.813 1.432-2.063 1.432-1.278 0-2.199-.59-2.278-1.755h-2.38c.062 2.517 1.863 3.818 4.687 3.818 2.84 0 4.51-1.358 4.517-3.489-.006-1.937-1.466-2.966-3.489-3.42l-1.046-.25c-1.01-.233-1.857-.608-1.84-1.444 0-.75.664-1.3 1.869-1.3 1.176 0 1.898.534 1.989 1.448zM20.175 36h7.864v-2.028h-5.403v-2.779h4.977v-2.028h-4.977v-2.773h5.38v-2.028h-7.84V36zm9.797 0h2.46v-3.773h2.069c2.676 0 4.233-1.596 4.233-3.92 0-2.313-1.529-3.943-4.17-3.943h-4.592V36zm2.46-5.744v-3.881h1.66c1.42 0 2.108.773 2.108 1.932 0 1.153-.688 1.949-2.097 1.949h-1.67z"/>
  <g opacity=".4">
    <path fill="#000" d="M10 4a2 2 0 114 0v4a2 2 0 11-4 0V4zM34 4a2 2 0 114 0v4a2 2 0 11-4 0V4z"/>
  </g>
  <path fill="#000" fill-rule="evenodd" d="M10 6.009c-2.48.036-3.885.22-4.828 1.163C4 8.343 4 10.229 4 14v2h40v-2c0-3.771 0-5.657-1.172-6.828-.943-.944-2.348-1.127-4.828-1.163V8a2 2 0 11-4 0V6H14v2a2 2 0 11-4 0V6.009z" clip-rule="evenodd"/>
</svg>
